X: 58
T: No_51_Iron_Line_Dance_Song.krn
N: Derived from No_51_Iron_Line_Dance_Song.krn
%%abc-version 2.0
%%abcx-abcm2ps-target-version 5.9.1 (29 Sep 2008)
%%abc-creator hum2abc beta
%%abcx-conversion-date 2019/03/15 08:36:49
%%humdrum-veritas 2232140798
%%humdrum-veritas-data 504336314
%%linebreak <none>
%%barnumbers 0
L: 1/8
M: 3/4
%%staves {1 2}
V: 1 clef=bass
V: 2 clef=bass
K: D
[V:1] [K:clef=bass][M:3/4]D/D3/ B,D B,3/B,/ | 
[V:2] [K:clef=bass][M:3/4]G,,2G,,2G,,2 | 
[V:1] D4B,/B,3/ | 
[V:2] G,,2G,,2G,,2 | 
[V:1] A,A,A,2F,3/A,/ ||  
[V:2] z6 ||  
[V:1] [M:2/4]A,/A,3/ F,A, ||  
[V:2] [M:2/4]z4 ||  
[V:1] [M:3/4]A,6 ||  
[V:2] [M:3/4]z6 ||  
[V:1] [M:2/4]D/D3/ B,D ||  
[V:2] [M:2/4]z4 ||  
[V:1] [M:3/4]A,G, F,3/A,/ F,/E,/D, | 
[V:2] [M:3/4]z6 | 
[V:1] D,4B,,2 ||  
[V:2] z6 ||  
[V:1] [M:2/4]D,/D,3/ B,,D, ||  
[V:2] [M:2/4]z4 ||  
[V:1] [M:3/4]D,6 ||  
[V:2] [M:3/4]z6 ||  
[V:1] [M:2/4]A,/A,3/ F,A, ||  
[V:2] [M:2/4]z4 ||  
[V:1] [M:3/4]F,E, D,3/F,/ C,/B,,/A,, | 
[V:2] [M:3/4]z6 | 
[V:1] A,,4F,,2 ||  
[V:2] z6 ||  
[V:1] [M:2/4]A,,/A,,3/ F,,A,, ||  
[V:2] [M:2/4]z4 ||  
[V:1] [M:3/4]A,,6 | 
[V:2] [M:3/4]z6 | 
[V:1] A,,/A,,3/ A,,A,,A,,2 |]  
[V:2] z6 |]  



